X: 18102
T: Humours Of Ballymanus, The
R: slip jig
M: 9/8
K: Cmajor
|:GAG GEG GEG|GAG G2 E ABc|GAG GEG GEG|ABA A2 G ABc:|
|:c2 c edc BAG|c2 c edc e2 g|c2 c edc BAG|ABA A2 G A2 c:|
|:EGc cGE cGE|EGc c2 E ABc|EGc cGE cGE|ABA A2 G ABc:|
|:ceg gec dBG|ceg g2 c f2 d|ceg gec dBG|ABA A2 G A2 c:|

